svg/alien_outline.svg

<svg xmlns="http://www.w3.org/2000/svg" viewBox="0 0 24 24"><path d="M10.31 10.93c1.02 1.64.87 3.57-.35 4.35-1.22.76-3.04.05-4.07-1.59-1.02-1.64-.86-3.59.36-4.35s3.04-.05 4.06 1.59M12 17.75c2 0 2.5-.75 2.5-.75s-.5 2-2.5 2-2.5-1.97-2.5-2c0 0 .5.75 2.5.75m5.75-8.41c1.22.76 1.38 2.71.36 4.35-1.03 1.64-2.85 2.35-4.07 1.59-1.22-.78-1.37-2.71-.35-4.35s2.84-2.35 4.06-1.59M12 20c2.5 0 8-5.14 8-9s-3.59-7-8-7-8 3.14-8 7 5.5 9 8 9m0-18c5.5 0 10 4.04 10 9 0 4.08-5.68 11-10 11S2 15.08 2 11c0-4.96 4.5-9 10-9"/></svg>

<?xml version="1.0" encoding="UTF-8"?><!DOCTYPE svg PUBLIC "-//W3C//DTD SVG 1.1//EN" "http://www.w3.org/Graphics/SVG/1.1/DTD/svg11.dtd"><svg xmlns="http://www.w3.org/2000/svg" xmlns:xlink="http://www.w3.org/1999/xlink" version="1.1" id="mdi-alien-outline" width="24" height="24" viewBox="0 0 24 24"><path d="M10.31 10.93C11.33 12.57 11.18 14.5 9.96 15.28C8.74 16.04 6.92 15.33 5.89 13.69C4.87 12.05 5.03 10.1 6.25 9.34C7.47 8.58 9.29 9.29 10.31 10.93M12 17.75C14 17.75 14.5 17 14.5 17C14.5 17 14 19 12 19C10 19 9.5 17.03 9.5 17C9.5 17 10 17.75 12 17.75M17.75 9.34C18.97 10.1 19.13 12.05 18.11 13.69C17.08 15.33 15.26 16.04 14.04 15.28C12.82 14.5 12.67 12.57 13.69 10.93C14.71 9.29 16.53 8.58 17.75 9.34M12 20C14.5 20 20 14.86 20 11C20 7.14 16.41 4 12 4C7.59 4 4 7.14 4 11C4 14.86 9.5 20 12 20M12 2C17.5 2 22 6.04 22 11C22 15.08 16.32 22 12 22C7.68 22 2 15.08 2 11C2 6.04 6.5 2 12 2Z" /></svg>
